packages/core/src/svgs/tokens/branded/TLM.svg

<svg width="24" height="24" viewBox="0 0 24 24" fill="none" xmlns="http://www.w3.org/2000/svg">
<path fill-rule="evenodd" clip-rule="evenodd" d="M9.51605 5.46986L10.8499 2.72422C11.3186 1.75859 12.6811 1.75859 13.15 2.72422L14.4836 5.46986C14.0111 6.75112 13.0773 7.62363 12.0024 7.62489H11.9999C10.9236 7.62489 9.98855 6.75175 9.51605 5.46986ZM9.00799 6.51488L7.86548 8.86614C8.52909 8.4267 9.2588 8.09628 10.0268 7.88739C9.62863 7.52613 9.28301 7.05988 9.00799 6.51488ZM4.52484 15.7418L3.59982 17.6444C4.20608 17.7119 4.76046 17.9531 5.21109 18.3168C4.82948 17.5067 4.59702 16.6345 4.52484 15.7418ZM5.41546 22H2.85483C2.22294 22 1.80981 21.3293 2.08857 20.7562L3.30544 18.25C3.7396 18.2595 4.16381 18.3818 4.53627 18.6053C4.90872 18.8285 5.21657 19.145 5.42953 19.5234C5.64248 19.9019 5.75317 20.3293 5.75071 20.7636C5.74824 21.1979 5.6327 21.624 5.41546 22ZM6.11484 22H8.99799C7.94868 21.5405 7.01814 20.8475 6.27734 19.9738C6.45017 20.6484 6.39298 21.3615 6.11484 22ZM15.0025 22H17.26C17.0831 21.595 16.9944 21.1569 17 20.7151C16.4063 21.2468 15.7325 21.6805 15.0025 22ZM20.7293 18.3237L21.9113 20.7556C22.1899 21.3293 21.7768 22 21.1449 22H17.9593C17.7397 21.6201 17.6243 21.1889 17.6249 20.7501C17.6249 20.46 17.6743 20.1813 17.7649 19.9224C18.0481 19.5831 18.3011 19.2181 18.5212 18.8319C18.8234 18.5793 19.1808 18.4017 19.5643 18.3133C19.948 18.2249 20.3472 18.2289 20.7293 18.3237ZM20.3956 17.6362L19.4749 15.7418C19.4168 16.4593 19.2552 17.1644 18.995 17.8355C19.4404 17.6627 19.9196 17.5945 20.3956 17.6362ZM16.1343 8.86614C15.4706 8.42674 14.741 8.09631 13.973 7.88739C14.3712 7.52613 14.7168 7.05988 14.9918 6.51488L16.1343 8.86614ZM12.6249 21.3443C12.2093 21.3857 11.7905 21.3857 11.3749 21.3443V12H6.5861C6.84919 11.5451 7.16835 11.1251 7.53611 10.7499H16.463C16.831 11.1251 17.1503 11.5451 17.4137 12H12.6249V21.3443ZM13.2499 21.25C16.1031 20.6706 18.2499 18.1487 18.2499 15.1249C18.2511 14.2646 18.0741 13.4134 17.7299 12.6249H13.2499V21.25ZM11.9999 8.87489C13.4074 8.87489 14.7062 9.3399 15.7505 10.1249H8.24924C9.3304 9.31159 10.647 8.87276 11.9999 8.87489ZM6.26985 12.6249C5.92572 13.4134 5.74866 14.2646 5.74985 15.1249C5.74985 18.1487 7.89736 20.6706 10.7498 21.25V12.6249H6.26985Z" fill="#EACB7D"/>
</svg>

<svg xmlns="http://www.w3.org/2000/svg" width="24" height="24" fill="none" viewBox="0 0 24 24">
    <path fill="#EACB7D" fill-rule="evenodd" d="m9.516 5.47 1.334-2.746a1.275 1.275 0 0 1 2.3 0l1.334 2.746c-.473 1.281-1.407 2.154-2.482 2.155H12c-1.076 0-2.011-.873-2.484-2.155m-.508 1.045L7.865 8.866a7.5 7.5 0 0 1 2.162-.979 4.7 4.7 0 0 1-1.019-1.372m-4.483 9.227L3.6 17.644a3.1 3.1 0 0 1 1.611.673 7.5 7.5 0 0 1-.686-2.575M5.415 22h-2.56c-.632 0-1.045-.67-.766-1.244l1.216-2.506a2.5 2.5 0 0 1 2.446 2.514A2.5 2.5 0 0 1 5.415 22m.7 0h2.883a7.5 7.5 0 0 1-2.72-2.026A3.13 3.13 0 0 1 6.114 22m8.888 0h2.257a3.1 3.1 0 0 1-.26-1.285A7.5 7.5 0 0 1 15.002 22m5.726-3.676 1.182 2.432c.279.573-.134 1.244-.766 1.244h-3.186a2.5 2.5 0 0 1-.194-2.078q.425-.51.756-1.09a2.5 2.5 0 0 1 2.208-.508m-.333-.688-.921-1.894a7.5 7.5 0 0 1-.48 2.093 3.1 3.1 0 0 1 1.4-.199m-4.262-8.77a7.5 7.5 0 0 0-2.161-.979 4.7 4.7 0 0 0 1.019-1.372zm-3.51 12.478a6.3 6.3 0 0 1-1.25 0V12H6.587a6.3 6.3 0 0 1 .95-1.25h8.927c.368.375.687.795.95 1.25h-4.788zm.626-.094a6.252 6.252 0 0 0 4.48-8.625h-4.48zM12 8.875a6.22 6.22 0 0 1 3.75 1.25h-7.5A6.22 6.22 0 0 1 12 8.875m-5.73 3.75a6.253 6.253 0 0 0 4.48 8.625v-8.625z" clip-rule="evenodd"/>
</svg>
